X:1
T:Sacred Morn, 77.77.77
T:William Henry Squires, 1895
T:Sacred Morn, 77.77.77
T:Public Domain
C:William Henry Squires, 1895
Z:Public Domain
%%score ( 1 2 ) ( 3 4 )
L:1/8
M:4/4
K:E
V:1 treble 
V:2 treble 
V:3 bass 
V:4 bass 
V:1
 [EG]2 [EB]2 E2 [DF]2 | [EG]2 [DA]2 [EB]4 | [Ec]2 [EB]2 [DA]2 [EG]2 | [DF]2 [Ec]2 [DB]4 | %4
 [EB]2 [EB]2 [Ec]2 [EB]2 | [Ec]2 [Ad]2 [Ge]4 | [Fd]2 [FB]2 [EG]2 [EB]2 | [DB]2 [Ec]2 [DB]4 | %8
 [EB]2 [Ge]2 [Ad]2 [Fc]2 | [B,B]2 (A>G) ([EG]2 [DF]2) | [EG]2 [EA]2 [=DB]2 [CE]2 | %11
 B,-[B,-E] [B,DF]2 [B,E]4 |] %12
V:2
 x4 E2 x2 | x8 | x8 | x8 | x8 | x8 | x8 | x8 | x8 | x2 E2 x4 | x8 | E2 x6 |] %12
V:3
 [E,B,]2 [E,G,]2 [C,G,]2 [B,,B,]2 | [E,B,]2 [F,B,]2 [G,B,]4 | A,2 [G,B,]2 [F,B,]2 [E,B,]2 | %3
 [F,B,]2 [F,,^A,]2 (B,2 =A,2) | [E,G,]2 [E,G,]2 [E,A,]2 [E,G,]2 | A,2 [F,B,]2 [E,B,]4 | %6
 [B,,B,]2 [D,B,]2 [E,B,]2 [G,B,]2 | [F,B,]2 [F,,^A,]2 [B,,B,]4 | [E,G,]2 [E,B,]2 [F,B,]2 [A,D]2 | %9
 [G,E]2 (C>B,) [B,,B,]4 | [E,B,]2 [C,A,]2 [G,,E,]2 (E,F,) | [B,,G,]2 [B,,A,]2 [E,G,]4 |] %12
V:4
 x8 | x8 | A,2 x6 | x4 B,,4 | x8 | A,2 x6 | x8 | x8 | x8 | x2 E,2 x4 | x6 A,,2 | x8 |] %12

